X:10523
T:Mazurka
R:Mazurka
O:France
M:3/4
K:G
DG|B2 B2 GF|E2 E2 DF|A2 A2 FA|d4 DG|\
B2 B2 GF|E2 E2 DF|A2 Ac BA|G4:|\
|:dc|B2 Bd Bd|G2 A2 cB|A2 A2 FA|d4 dc|\
B2 Bd Bd|g2 A2 A2|d2 dB cA|G4:|
